src/assets/Icons/LinkedIn.svg

<svg width="24" height="24" viewBox="0 0 24 24" fill="none" xmlns="http://www.w3.org/2000/svg">
<path d="M22.2234 0H1.77187C0.792187 0 0 0.773438 0 1.72969V22.2656C0 23.2219 0.792187 24 1.77187 24H22.2234C23.2031 24 24 23.2219 24 22.2703V1.72969C24 0.773438 23.2031 0 22.2234 0ZM7.12031 20.4516H3.55781V8.99531H7.12031V20.4516ZM5.33906 7.43438C4.19531 7.43438 3.27188 6.51094 3.27188 5.37187C3.27188 4.23281 4.19531 3.30937 5.33906 3.30937C6.47813 3.30937 7.40156 4.23281 7.40156 5.37187C7.40156 6.50625 6.47813 7.43438 5.33906 7.43438ZM20.4516 20.4516H16.8937V14.8828C16.8937 13.5562 16.8703 11.8453 15.0422 11.8453C13.1906 11.8453 12.9094 13.2937 12.9094 14.7891V20.4516H9.35625V8.99531H12.7687V10.5609H12.8156C13.2891 9.66094 14.4516 8.70938 16.1813 8.70938C19.7859 8.70938 20.4516 11.0813 20.4516 14.1656V20.4516Z" fill="#FD943C"/>
</svg>

<svg width="24" height="24" fill="none" xmlns="http://www.w3.org/2000/svg"><path d="M22.223 0H1.772C.792 0 0 .773 0 1.73v20.536C0 23.222.792 24 1.772 24h20.451c.98 0 1.777-.778 1.777-1.73V1.73C24 .773 23.203 0 22.223 0ZM7.12 20.452H3.558V8.995H7.12v11.457ZM5.34 7.434a2.064 2.064 0 1 1 0-4.125 2.063 2.063 0 0 1 0 4.125Zm15.112 13.018h-3.558v-5.57c0-1.326-.024-3.037-1.852-3.037-1.851 0-2.133 1.449-2.133 2.944v5.663H9.356V8.995h3.413v1.566h.047c.473-.9 1.636-1.852 3.365-1.852 3.605 0 4.27 2.372 4.27 5.457v6.286Z" fill="#FD943C"/></svg>
